X: 3311
T: The HARP THAT ONCE
%R: air, waltz
B: James Kerr "Merry Melodies" v.3 p.34 #311
Z: 2016 John Chambers <jc:trillian.mit.edu>
M: 3/4
L: 1/4
K: G
uG |\
(d2e) | (d2B) | (e2f) | (g2e) |\
(d2B) | (A2B) | G3- | G2 d |\
(g2f) | (g2a) | (g2f) | (e2d) |\
(e2d) | (g2B) | d3 | def |
(g2f) | (g2a) | (g2f) | (e2d) |\
(e2d) | (c2B) | e3 | f3 |\
(g2f) | (e2d) | (e2f) | (g2e) |\
(dB2) | (A2B) | "_D.C. to Allegro."G3- | Gz |]

%%sep 1 1 500
%%sep 1 1 500

